public/topics/19.svg

<svg width="250" height="250" viewBox="0 0 250 250" fill="none" xmlns="http://www.w3.org/2000/svg">
<rect width="250" height="250" rx="30" fill="#000099"/>
<path d="M88.6 89.8C87.2667 115.933 86.6 136.733 86.6 152.2C86.6 160.2 86.8 167.8 87.2 175C88.2667 175.8 90.3333 176.2 93.4 176.2L98 176C99.8667 175.733 101.6 175.6 103.2 175.6C106.667 175.6 109.333 176.2 111.2 177.4C113.2 178.6 114.2 180.933 114.2 184.4C114.2 187.733 113.2 190.333 111.2 192.2C109.333 194.067 105.4 195 99.4 195C94.3333 195 88.2 194.6 81 193.8C79.2667 193.667 77.6 193.533 76 193.4C74.4 193.267 72.9333 193.2 71.6 193.2C64.2667 193.333 58.8 193.6 55.2 194C51.6 194.4 47.5333 194.6 43 194.6C38.8667 194.6 36.8 191.467 36.8 185.2C36.8 179.2 40.6667 176.2 48.4 176.2C49.6 176.2 51.5333 176.333 54.2 176.6C56.4667 177 58.8667 177.2 61.4 177.2C62.8667 177.2 64.0667 177.133 65 177C65.1333 168.067 65.6 155.067 66.4 138C67.2 118 67.6 103.2 67.6 93.6C66.9333 93.7333 64.6 94.6667 60.6 96.4C54.4667 99.4667 49.9333 101 47 101C45.4 101 43.9333 100.2 42.6 98.6C41.2667 96.8667 40.6 94.8667 40.6 92.6C40.6 90.3333 42 88.1333 44.8 86C47.6 83.8667 52.1333 81.0667 58.4 77.6C61.8667 75.8667 65.2 73.9333 68.4 71.8C69.2 71.2667 70.3333 70.7333 71.8 70.2C73.4 69.6667 74.6 69.4 75.4 69.4C78.8667 69.4 82 70.1333 84.8 71.6C87.7333 72.9333 89.2 74.7333 89.2 77L88.6 89.8ZM160.773 175.4C165.307 173.933 169.64 171.267 173.773 167.4C178.04 163.533 181.573 159.2 184.373 154.4C187.307 149.467 189.04 144.733 189.573 140.2C185.84 142.867 182.04 144.733 178.173 145.8C174.307 146.867 169.84 147.4 164.773 147.4C157.973 147.4 152.373 146.267 147.973 144C143.573 141.6 138.907 138.2 133.973 133.8C133.173 133 132.173 131.267 130.973 128.6C129.773 125.8 128.707 122.4 127.773 118.4C126.84 114.267 126.373 110.067 126.373 105.8C126.373 101.933 127.573 97.8667 129.973 93.6C132.373 89.3333 135.373 85.5333 138.973 82.2C142.707 78.7333 146.24 76.2667 149.573 74.8C152.64 73.4667 156.173 72.3333 160.173 71.4C164.307 70.3333 167.773 69.8 170.573 69.8C180.04 69.8 187.973 72 194.373 76.4C200.907 80.8 205.707 86.6667 208.773 94C211.84 101.333 213.373 109.467 213.373 118.4C213.373 133.733 209.973 147.733 203.173 160.4C196.373 172.933 187.773 182.667 177.373 189.6C175.64 190.8 172.64 192.133 168.373 193.6C164.24 194.933 160.44 195.6 156.973 195.6C154.307 195.6 151.973 194.4 149.973 192C147.973 189.6 146.973 186.867 146.973 183.8C146.973 181.667 147.707 180.2 149.173 179.4C150.64 178.467 153.04 177.533 156.373 176.6L160.773 175.4ZM170.573 86.8C168.44 86.8 165.907 87.2667 162.973 88.2C160.173 89 157.773 90 155.773 91.2C153.507 92.5333 151.307 94.6 149.173 97.4C147.173 100.067 146.173 102.133 146.173 103.6C146.173 121.067 153.24 129.8 167.373 129.8C170.573 129.8 174.107 129.133 177.973 127.8C181.973 126.333 185.307 124.333 187.973 121.8C190.64 119.267 191.973 116.4 191.973 113.2C191.973 104.4 190.107 97.8 186.373 93.4C182.773 89 177.507 86.8 170.573 86.8Z" fill="white"/>
</svg>

<svg xmlns="http://www.w3.org/2000/svg" width="250" height="250" fill="none" viewBox="0 0 250 250"><rect width="250" height="250" fill="#009" rx="30"/><path fill="#fff" d="M88.6 89.8q-2 39.2-2 62.4 0 12 .6 22.8 1.6 1.2 6.2 1.2l4.6-.2q2.8-.4 5.2-.4 5.2 0 8 1.8 3 1.8 3 7 0 5-3 7.8-2.8 2.8-11.8 2.8-7.6 0-18.4-1.2a789 789 0 0 1-5-.4 54 54 0 0 0-4.4-.2q-11 .2-16.4.8t-12.2.6q-6.2 0-6.2-9.4 0-9 11.6-9 1.8 0 5.8.4 3.4.6 7.2.6 2.2 0 3.6-.2.2-13.4 1.4-39 1.2-30 1.2-44.4-1 .2-7 2.8Q51.4 101 47 101q-2.4 0-4.4-2.4-2-2.6-2-6t4.2-6.6 13.6-8.4a93 93 0 0 0 10-5.8q1.2-.8 3.4-1.6 2.4-.8 3.6-.8 5.2 0 9.4 2.2 4.4 2 4.4 5.4zm72.173 85.6q6.8-2.2 13-8 6.4-5.8 10.6-13 4.4-7.4 5.2-14.2-5.6 4-11.4 5.6t-13.4 1.6q-10.2 0-16.8-3.4-6.6-3.6-14-10.2-1.2-1.2-3-5.2-1.8-4.2-3.2-10.2a57 57 0 0 1-1.4-12.6q0-5.8 3.6-12.2t9-11.4q5.6-5.2 10.6-7.4 4.6-2 10.6-3.4 6.2-1.6 10.4-1.6 14.2 0 23.8 6.6 9.801 6.6 14.4 17.6t4.6 24.4q0 23-10.2 42-10.2 18.8-25.8 29.2-2.6 1.8-9 4-6.2 2-11.4 2-4 0-7-3.6t-3-8.2q0-3.2 2.2-4.4 2.2-1.4 7.2-2.8zm9.8-88.6q-3.2 0-7.6 1.4-4.2 1.2-7.2 3-3.399 2-6.6 6.2-3 4-3 6.2 0 26.2 21.2 26.2 4.8 0 10.6-2 6-2.2 10-6t4-8.6q0-13.2-5.6-19.8-5.4-6.6-15.8-6.6"/></svg>
